material/.icons/material/gas-cylinder.svg

<svg xmlns="http://www.w3.org/2000/svg" viewBox="0 0 24 24"><path d="M16 9v11a2 2 0 01-2 2h-4a2 2 0 01-2-2V9c0-1.86 1.27-3.43 3-3.87V4H9V2h6v2h-2v1.13c1.73.44 3 2.01 3 3.87z"/></svg>

<?xml version="1.0" encoding="UTF-8"?><!DOCTYPE svg PUBLIC "-//W3C//DTD SVG 1.1//EN" "http://www.w3.org/Graphics/SVG/1.1/DTD/svg11.dtd"><svg xmlns="http://www.w3.org/2000/svg" xmlns:xlink="http://www.w3.org/1999/xlink" version="1.1" id="mdi-gas-cylinder" width="24" height="24" viewBox="0 0 24 24"><path d="M16,9V14L16,20A2,2 0 0,1 14,22H10A2,2 0 0,1 8,20V14L8,9C8,7.14 9.27,5.57 11,5.13V4H9V2H15V4H13V5.13C14.73,5.57 16,7.14 16,9Z" /></svg>
